packages/foundations/assets/icons/functional/images/transportation/ship_20.svg

<svg width="20" height="20" viewBox="0 0 20 20" fill="none" xmlns="http://www.w3.org/2000/svg">
<g clip-path="url(#clip0_2214_7249)">
<path fill-rule="evenodd" clip-rule="evenodd" d="M16.0024 15.3412C16.0714 15.42 16.4472 15.9999 16.9997 15.9999C17.5523 15.9999 18 16.4476 18 16.9999C18 17.5127 17.5695 18.0009 16.9961 17.9999C16.4484 17.9999 15.8664 17.7789 15.25 17.3369C14.6729 17.772 14.0897 17.9897 13.5003 17.99C12.9108 17.9902 12.3274 17.7729 11.75 17.3379C11.1665 17.7726 10.5822 17.9932 9.9971 17.9999C9.41199 18.0065 8.82962 17.7858 8.25 17.3379C7.66697 17.7726 7.08362 17.9933 6.49995 17.9999C5.91628 18.0065 5.33296 17.7858 4.75 17.3379C4.17573 17.7726 3.5924 17.9933 3 17.9999C2.44772 17.9999 2 17.5522 2 16.9999C2 16.4476 2.44772 15.9999 3 15.9999C3.11956 15.9999 3.59844 15.7981 3.99691 15.342C4.39538 14.8859 5.10462 14.8859 5.50309 15.342C5.5717 15.4205 5.9874 16 6.49995 15.9999C7.0125 15.9998 7.42858 15.4201 7.49744 15.3414C7.89581 14.8861 8.60405 14.886 9.00248 15.3413C9.07138 15.42 9.50152 15.9999 10.0003 15.9999C10.4991 15.9999 10.9286 15.4199 10.9976 15.3412C11.3958 14.8863 12.1036 14.8861 12.5021 15.3408C12.5712 15.4196 13.0016 15.9998 13.5003 15.9999C13.999 16 14.4286 15.42 14.4976 15.3412C14.896 14.8861 15.6041 14.8861 16.0024 15.3412ZM12 1.99988C12.4206 1.99988 12.7918 2.26229 12.9364 2.64892L14.5 6.99988H17C17.5657 6.99988 18.0188 7.46873 17.9994 8.0341C17.9232 10.2585 16.9499 12.3443 15.3216 13.7555C14.9043 14.1173 14.2727 14.0722 13.911 13.6548C13.5493 13.2375 13.5943 12.6059 14.0117 12.2442C14.9474 11.4332 15.4967 10.5109 15.877 8.99988C11.6159 8.97966 7.32352 8.97966 3 8.99988C2.48716 8.99988 2 8.51271 2 7.99988C2 7.48704 2.38604 7.06437 2.88338 7.00661L12.437 6.99988L11.25 3.99988H3C2.48716 3.99988 2 3.51271 2 2.99988C2 2.48704 2.38604 2.06437 2.88338 2.00661L12 1.99988ZM12 9.99988C12.5523 9.99988 13 10.4476 13 10.9999C13 11.5522 12.5523 11.9999 12 11.9999C11.4477 11.9999 11 11.5522 11 10.9999C11 10.4476 11.4477 9.99988 12 9.99988ZM8 9.99988C8.55228 9.99988 9 10.4476 9 10.9999C9 11.5522 8.55228 11.9999 8 11.9999C7.44772 11.9999 7 11.5522 7 10.9999C7 10.4476 7.44772 9.99988 8 9.99988ZM4 9.99988C4.55228 9.99988 5 10.4476 5 10.9999C5 11.5522 4.55228 11.9999 4 11.9999C3.44772 11.9999 3 11.5522 3 10.9999C3 10.4476 3.44772 9.99988 4 9.99988Z" fill="#1A1C1F"/>
</g>
<defs>
<clipPath id="clip0_2214_7249">
<rect width="20" height="20" fill="white"/>
</clipPath>
</defs>
</svg>

<svg xmlns="http://www.w3.org/2000/svg" width="20" height="20" fill="none"><g clip-path="url(#a)"><path fill="#1A1C1F" fill-rule="evenodd" d="M16.002 15.341c.07.079.445.659.998.659a1 1 0 0 1 1 1c0 .513-.43 1-1.004 1q-.822 0-1.746-.663-.865.653-1.75.653t-1.75-.652q-.876.652-1.753.662t-1.747-.662q-.874.652-1.75.662t-1.75-.662Q3.889 17.99 3 18a1 1 0 1 1 0-2c.12 0 .598-.202.997-.658a1 1 0 0 1 1.506 0c.069.079.484.658.997.658s.929-.58.997-.659a1 1 0 0 1 1.505 0c.07.079.5.659.998.659.5 0 .929-.58.998-.659a1 1 0 0 1 1.504 0c.07.079.5.659.998.659.499 0 .929-.58.998-.659a1 1 0 0 1 1.504 0M12 2a1 1 0 0 1 .936.649l1.564 4.35H17a1 1 0 0 1 1 1.035c-.077 2.224-1.05 4.31-2.678 5.721a1 1 0 1 1-1.31-1.51c.935-.812 1.485-1.734 1.865-3.245Q9.486 8.97 3 9c-.513 0-1-.487-1-1a1 1 0 0 1 .883-.993L12.437 7 11.25 4H3c-.513 0-1-.487-1-1a1 1 0 0 1 .883-.993zm0 8a1 1 0 1 1 0 2 1 1 0 0 1 0-2m-4 0a1 1 0 1 1 0 2 1 1 0 0 1 0-2m-4 0a1 1 0 1 1 0 2 1 1 0 0 1 0-2" clip-rule="evenodd"/></g><defs><clipPath id="a"><path fill="#fff" d="M0 0h20v20H0z"/></clipPath></defs></svg>
